img/Ico/5Stars.svg

<svg width="130" height="22" viewBox="0 0 130 22" fill="none" xmlns="http://www.w3.org/2000/svg">
<path d="M119.124 16.9338L113.721 20.2198C113.594 20.2967 113.448 20.3346 113.3 20.3286C113.153 20.3226 113.01 20.2731 112.89 20.1862C112.77 20.0993 112.679 19.9789 112.628 19.8402C112.576 19.7016 112.567 19.5508 112.601 19.4068L114.057 13.2518L109.261 9.1288C109.149 9.03233 109.068 8.90487 109.028 8.76245C108.988 8.62002 108.991 8.46899 109.037 8.32834C109.083 8.18769 109.169 8.06371 109.285 7.97198C109.401 7.88025 109.541 7.82487 109.689 7.8128L115.992 7.2958L118.432 1.4608C118.489 1.32431 118.585 1.20773 118.708 1.12574C118.831 1.04375 118.976 1 119.124 1C119.272 1 119.416 1.04375 119.54 1.12574C119.663 1.20773 119.759 1.32431 119.816 1.4608L122.256 7.2958L128.559 7.8128C128.706 7.82504 128.847 7.88055 128.962 7.97235C129.078 8.06414 129.164 8.18814 129.21 8.32875C129.256 8.46937 129.259 8.62033 129.219 8.76267C129.179 8.90502 129.098 9.0324 128.986 9.1288L124.191 13.2518L125.647 19.4068C125.681 19.5508 125.671 19.7016 125.62 19.8402C125.569 19.9789 125.477 20.0993 125.357 20.1862C125.238 20.2731 125.095 20.3226 124.947 20.3286C124.799 20.3346 124.653 20.2967 124.527 20.2198L119.124 16.9338Z" fill="#FFCC00"/>
<path d="M11.1238 16.9338L5.72081 20.2198C5.59447 20.2967 5.44819 20.3346 5.30039 20.3286C5.15258 20.3226 5.00985 20.2731 4.89014 20.1862C4.77043 20.0993 4.67909 19.9789 4.6276 19.8402C4.57612 19.7016 4.5668 19.5508 4.60081 19.4068L6.05681 13.2518L1.26081 9.1288C1.1487 9.03233 1.06762 8.90487 1.02776 8.76245C0.987892 8.62002 0.99103 8.46899 1.03677 8.32834C1.08251 8.18769 1.16882 8.06371 1.28484 7.97198C1.40085 7.88025 1.5414 7.82487 1.68881 7.8128L7.99181 7.2958L10.4318 1.4608C10.4889 1.32431 10.585 1.20773 10.7081 1.12574C10.8312 1.04375 10.9759 1 11.1238 1C11.2717 1 11.4164 1.04375 11.5395 1.12574C11.6626 1.20773 11.7588 1.32431 11.8158 1.4608L14.2558 7.2958L20.5588 7.8128C20.7061 7.82504 20.8466 7.88055 20.9624 7.97235C21.0783 8.06414 21.1645 8.18814 21.2101 8.32875C21.2557 8.46937 21.2588 8.62033 21.2189 8.76267C21.179 8.90502 21.0979 9.0324 20.9858 9.1288L16.1908 13.2518L17.6468 19.4068C17.6808 19.5508 17.6715 19.7016 17.62 19.8402C17.5685 19.9789 17.4772 20.0993 17.3575 20.1862C17.2378 20.2731 17.095 20.3226 16.9472 20.3286C16.7994 20.3346 16.6532 20.2967 16.5268 20.2198L11.1238 16.9338Z" fill="#FFCC00"/>
<path d="M38.1238 16.9338L32.7208 20.2198C32.5945 20.2967 32.4482 20.3346 32.3004 20.3286C32.1526 20.3226 32.0098 20.2731 31.8901 20.1862C31.7704 20.0993 31.6791 19.9789 31.6276 19.8402C31.5761 19.7016 31.5668 19.5508 31.6008 19.4068L33.0568 13.2518L28.2608 9.1288C28.1487 9.03233 28.0676 8.90487 28.0278 8.76245C27.9879 8.62002 27.991 8.46899 28.0368 8.32834C28.0825 8.18769 28.1688 8.06371 28.2848 7.97198C28.4009 7.88025 28.5414 7.82487 28.6888 7.8128L34.9918 7.2958L37.4318 1.4608C37.4889 1.32431 37.585 1.20773 37.7081 1.12574C37.8312 1.04375 37.9759 1 38.1238 1C38.2717 1 38.4164 1.04375 38.5395 1.12574C38.6626 1.20773 38.7588 1.32431 38.8158 1.4608L41.2558 7.2958L47.5588 7.8128C47.7061 7.82504 47.8466 7.88055 47.9624 7.97235C48.0783 8.06414 48.1645 8.18814 48.2101 8.32875C48.2557 8.46937 48.2588 8.62033 48.2189 8.76267C48.179 8.90502 48.0979 9.0324 47.9858 9.1288L43.1908 13.2518L44.6468 19.4068C44.6808 19.5508 44.6715 19.7016 44.62 19.8402C44.5685 19.9789 44.4772 20.0993 44.3575 20.1862C44.2378 20.2731 44.095 20.3226 43.9472 20.3286C43.7994 20.3346 43.6532 20.2967 43.5268 20.2198L38.1238 16.9338Z" fill="#FFCC00"/>
<path d="M65.1238 16.9338L59.7208 20.2198C59.5945 20.2967 59.4482 20.3346 59.3004 20.3286C59.1526 20.3226 59.0098 20.2731 58.8901 20.1862C58.7704 20.0993 58.6791 19.9789 58.6276 19.8402C58.5761 19.7016 58.5668 19.5508 58.6008 19.4068L60.0568 13.2518L55.2608 9.1288C55.1487 9.03233 55.0676 8.90487 55.0278 8.76245C54.9879 8.62002 54.991 8.46899 55.0368 8.32834C55.0825 8.18769 55.1688 8.06371 55.2848 7.97198C55.4009 7.88025 55.5414 7.82487 55.6888 7.8128L61.9918 7.2958L64.4318 1.4608C64.4889 1.32431 64.585 1.20773 64.7081 1.12574C64.8312 1.04375 64.9759 1 65.1238 1C65.2717 1 65.4164 1.04375 65.5395 1.12574C65.6626 1.20773 65.7588 1.32431 65.8158 1.4608L68.2558 7.2958L74.5588 7.8128C74.7061 7.82504 74.8466 7.88055 74.9624 7.97235C75.0783 8.06414 75.1645 8.18814 75.2101 8.32875C75.2557 8.46937 75.2588 8.62033 75.2189 8.76267C75.179 8.90502 75.0979 9.0324 74.9858 9.1288L70.1908 13.2518L71.6468 19.4068C71.6808 19.5508 71.6715 19.7016 71.62 19.8402C71.5685 19.9789 71.4772 20.0993 71.3575 20.1862C71.2378 20.2731 71.095 20.3226 70.9472 20.3286C70.7994 20.3346 70.6532 20.2967 70.5268 20.2198L65.1238 16.9338Z" fill="#FFCC00"/>
<path d="M92.1238 16.9338L86.7208 20.2198C86.5945 20.2967 86.4482 20.3346 86.3004 20.3286C86.1526 20.3226 86.0098 20.2731 85.8901 20.1862C85.7704 20.0993 85.6791 19.9789 85.6276 19.8402C85.5761 19.7016 85.5668 19.5508 85.6008 19.4068L87.0568 13.2518L82.2608 9.1288C82.1487 9.03233 82.0676 8.90487 82.0278 8.76245C81.9879 8.62002 81.991 8.46899 82.0368 8.32834C82.0825 8.18769 82.1688 8.06371 82.2848 7.97198C82.4009 7.88025 82.5414 7.82487 82.6888 7.8128L88.9918 7.2958L91.4318 1.4608C91.4889 1.32431 91.585 1.20773 91.7081 1.12574C91.8312 1.04375 91.9759 1 92.1238 1C92.2717 1 92.4164 1.04375 92.5395 1.12574C92.6626 1.20773 92.7588 1.32431 92.8158 1.4608L95.2558 7.2958L101.559 7.8128C101.706 7.82504 101.847 7.88055 101.962 7.97235C102.078 8.06414 102.164 8.18814 102.21 8.32875C102.256 8.46937 102.259 8.62033 102.219 8.76267C102.179 8.90502 102.098 9.0324 101.986 9.1288L97.1908 13.2518L98.6468 19.4068C98.6808 19.5508 98.6715 19.7016 98.62 19.8402C98.5685 19.9789 98.4772 20.0993 98.3575 20.1862C98.2378 20.2731 98.095 20.3226 97.9472 20.3286C97.7994 20.3346 97.6532 20.2967 97.5268 20.2198L92.1238 16.9338Z" fill="#FFCC00"/>
</svg>

<svg width="130" height="22" fill="none" xmlns="http://www.w3.org/2000/svg"><path d="m119.124 16.934-5.403 3.286a.753.753 0 0 1-.831-.034.746.746 0 0 1-.289-.78l1.456-6.154-4.796-4.123a.752.752 0 0 1 .428-1.316l6.303-.517 2.44-5.835a.75.75 0 0 1 1.384 0l2.44 5.835 6.303.517a.746.746 0 0 1 .651.516.746.746 0 0 1-.224.8l-4.795 4.123 1.456 6.155a.754.754 0 0 1-.29.78.747.747 0 0 1-.83.033l-5.403-3.286zM11.124 16.934 5.72 20.22a.75.75 0 0 1-1.12-.813l1.456-6.155L1.26 9.129a.75.75 0 0 1 .428-1.316l6.303-.517 2.44-5.835a.75.75 0 0 1 1.384 0l2.44 5.835 6.303.517a.75.75 0 0 1 .427 1.316l-4.795 4.123 1.456 6.155a.75.75 0 0 1-1.12.813l-5.403-3.286zM38.124 16.934 32.72 20.22a.75.75 0 0 1-1.12-.813l1.456-6.155-4.796-4.123a.75.75 0 0 1 .428-1.316l6.303-.517 2.44-5.835a.75.75 0 0 1 1.384 0l2.44 5.835 6.303.517a.75.75 0 0 1 .427 1.316l-4.795 4.123 1.456 6.155a.75.75 0 0 1-1.12.813l-5.403-3.286zM65.124 16.934 59.72 20.22a.75.75 0 0 1-1.12-.813l1.456-6.155-4.796-4.123a.75.75 0 0 1 .428-1.316l6.303-.517 2.44-5.835a.75.75 0 0 1 1.384 0l2.44 5.835 6.303.517a.75.75 0 0 1 .427 1.316l-4.795 4.123 1.456 6.155a.75.75 0 0 1-1.12.813l-5.403-3.286zM92.124 16.934 86.72 20.22a.75.75 0 0 1-1.12-.813l1.456-6.155-4.796-4.123a.75.75 0 0 1 .428-1.316l6.303-.517 2.44-5.835a.75.75 0 0 1 1.384 0l2.44 5.835 6.303.517a.746.746 0 0 1 .651.516.746.746 0 0 1-.224.8l-4.795 4.123 1.456 6.155a.75.75 0 0 1-1.12.813l-5.403-3.286z" fill="#FC0"/></svg>
